www/assets/icons/sentiment_satisfied.svg

<svg width="24" height="24" viewBox="0 0 24 24" xmlns="http://www.w3.org/2000/svg" fill='currentColor'><path d="M15.5 11C16.3284 11 17 10.3284 17 9.5C17 8.67157 16.3284 8 15.5 8C14.6716 8 14 8.67157 14 9.5C14 10.3284 14.6716 11 15.5 11Z"/><path d="M8.5 11C9.32843 11 10 10.3284 10 9.5C10 8.67157 9.32843 8 8.5 8C7.67157 8 7 8.67157 7 9.5C7 10.3284 7.67157 11 8.5 11Z"/><path d="M11.99 2C6.47 2 2 6.48 2 12C2 17.52 6.47 22 11.99 22C17.52 22 22 17.52 22 12C22 6.48 17.52 2 11.99 2ZM12 20C7.58 20 4 16.42 4 12C4 7.58 7.58 4 12 4C16.42 4 20 7.58 20 12C20 16.42 16.42 20 12 20ZM12 16C11.27 16 10.62 15.82 10.04 15.48C9.92 15.62 9.18 16.46 9.03 16.63C9.89 17.18 10.9 17.5 12 17.5C13.11 17.5 14.12 17.17 14.98 16.62C14.01 15.53 14.97 16.6 13.97 15.47C13.38 15.82 12.73 16 12 16Z"/></svg>

<svg xmlns="http://www.w3.org/2000/svg" width="24" height="24" viewBox="0 0 24 24" fill='currentColor'><path d="M15.5 11a1.5 1.5 0 1 0 0-3 1.5 1.5 0 0 0 0 3m-7 0a1.5 1.5 0 1 0 0-3 1.5 1.5 0 0 0 0 3"/><path d="M11.99 2C6.47 2 2 6.48 2 12s4.47 10 9.99 10C17.52 22 22 17.52 22 12S17.52 2 11.99 2M12 20c-4.42 0-8-3.58-8-8s3.58-8 8-8 8 3.58 8 8-3.58 8-8 8m0-4c-.73 0-1.38-.18-1.96-.52-.12.14-.86.98-1.01 1.15a5.49 5.49 0 0 0 5.95-.01c-.97-1.09-.01-.02-1.01-1.15-.59.35-1.24.53-1.97.53"/></svg>
